static/logos/clearscope-wordmark-color.svg

<svg width="100" height="21" viewBox="0 0 100 21" fill="none" xmlns="http://www.w3.org/2000/svg">
<g clip-path="url(#clip0_1_3251)">
<path d="M78.8906 12.8599V5.31993H80.0393C81.1641 5.31993 81.1876 5.31993 81.2195 5.50232C81.243 5.59745 81.3066 5.90667 81.3621 6.19208L81.4648 6.69949L82.0036 6.20793C82.9855 5.32789 83.944 5.01075 85.227 5.15344C86.9141 5.34374 88.1022 6.50922 88.6012 8.45963C88.7597 9.10976 88.7913 9.41106 88.7913 10.4655C88.7835 12.7014 88.2763 14.1364 87.0964 15.1988C85.9876 16.2058 84.443 16.5467 82.6529 16.1899C82.2648 16.1106 81.8767 16.0155 81.8056 15.9838C81.6709 15.9283 81.6631 16.0551 81.6631 17.9104C81.6631 19.0045 81.6311 19.9163 81.5916 19.9401C81.5284 19.9797 81.2512 20.0273 79.96 20.2255C79.6988 20.2651 79.3502 20.3206 79.1916 20.3524L78.8906 20.4079V12.8599ZM84.2689 13.9858C84.9974 13.7559 85.4964 13.2009 85.8369 12.2415C86.043 11.6786 86.0348 9.73612 85.8291 9.10184C85.6389 8.49136 85.2746 8.0315 84.7916 7.78572C83.96 7.34963 83.0093 7.61129 82.1223 8.50721L81.6631 8.98293V11.3139V13.6369L81.9083 13.7717C82.2253 13.9303 83.0253 14.1047 83.4927 14.1127C83.6984 14.1206 84.0471 14.0571 84.2689 13.9858Z" fill="black"/>
<path d="M4.19782 16.3405C2.09099 16.063 0.617793 14.6359 0.0871245 12.3524C0.039602 12.1463 0 11.4486 0 10.8064C0 9.41098 0.150488 8.72915 0.649473 7.75394C1.25143 6.58051 2.30484 5.71632 3.58796 5.34367C4.41167 5.10581 6.06704 5.07411 6.89075 5.28024C7.35806 5.39918 8.51442 5.9066 8.58571 6.02554C8.60156 6.04932 8.58571 6.28717 8.54612 6.54881C8.3402 7.92044 8.26099 8.41993 8.21347 8.45959C8.18969 8.48337 7.92833 8.35649 7.62735 8.18207C6.94619 7.76187 6.45514 7.61122 5.65517 7.56367C3.84139 7.44473 2.77214 8.63401 2.77214 10.7588C2.77214 11.9878 3.03352 12.7172 3.66714 13.3039C4.39582 13.9778 5.33044 14.1919 6.41554 13.9302C6.98578 13.7954 7.33429 13.6369 7.87289 13.2959C8.11051 13.1453 8.33228 13.0502 8.35602 13.0898C8.39565 13.1532 8.58571 14.287 8.68867 15.0482C8.7283 15.3732 8.7283 15.3812 8.3481 15.6269C7.38973 16.2295 5.63932 16.5308 4.19782 16.3405Z" fill="black"/>
<path d="M19.9516 16.3405C19.318 16.2375 18.5576 15.9679 18.1378 15.6983C17.7735 15.4684 17.0607 14.7945 16.831 14.4615C16.5696 14.0809 16.237 13.3198 16.0785 12.7489C15.8488 11.8689 15.8488 9.73612 16.0785 8.89568C16.5854 7.08799 17.7656 5.78772 19.3496 5.312C19.7694 5.18517 20.1179 5.15343 20.8941 5.14551C21.7891 5.14551 21.9634 5.16932 22.4941 5.35959C23.9039 5.867 24.8385 6.92942 25.2662 8.50721C25.4484 9.2049 25.5909 10.5448 25.5276 11.0047L25.4801 11.3456L22.0663 11.3615L18.6527 11.3852L18.6764 11.7817C18.724 12.8599 19.4526 13.8272 20.4189 14.1285C21.0129 14.3029 21.9476 14.3108 22.6366 14.1364C23.2703 13.9699 24.3474 13.4863 24.791 13.1533C25.1078 12.9234 25.2345 13.0027 25.29 13.4625C25.3137 13.6686 25.3771 14.1285 25.4246 14.4773C25.5118 15.0879 25.5038 15.1116 25.3296 15.2464C24.8702 15.5873 24.0306 15.96 23.1673 16.1978C22.5257 16.3722 20.6644 16.4515 19.9516 16.3405ZM22.8109 9.4269C22.8109 9.14146 22.6129 8.4834 22.4228 8.11871C22.0585 7.39721 21.5119 7.06422 20.7199 7.06422C19.7774 7.06422 18.8507 8.04734 18.716 9.18905L18.6685 9.60132H20.7437H22.8109V9.4269Z" fill="black"/>
<path d="M29.2291 16.3486C28.3499 16.1583 27.5578 15.5081 27.241 14.7074C26.9717 14.0414 26.9717 12.7094 27.241 12.0354C27.5024 11.3615 28.2073 10.64 28.936 10.2833C30.0132 9.76793 30.829 9.55385 33.0309 9.22878L33.4665 9.15742L33.4585 8.71344C33.4427 7.76201 32.912 7.38143 31.6131 7.38143C30.7418 7.38143 30.1399 7.50038 29.0944 7.86507C28.136 8.20599 28.0964 8.20599 28.0251 7.81752C27.8667 6.97708 27.74 6.07324 27.7796 6.0098C27.8588 5.87504 29.1419 5.47069 30.0924 5.27246C30.8844 5.10596 33.1338 5.10596 33.7754 5.27246C35.2405 5.66096 36.001 6.45382 36.199 7.81752C36.2388 8.12671 36.2782 10.085 36.2782 12.2812V16.182H35.1061H33.9259L33.8387 15.7777C33.7833 15.5557 33.7437 15.2941 33.7437 15.1831C33.7437 14.9373 33.5853 14.9373 33.3477 15.191C33.0388 15.524 32.318 15.9601 31.7636 16.1662C31.3676 16.3168 31.0508 16.3644 30.3775 16.3882C29.9023 16.3961 29.3795 16.3882 29.2291 16.3486ZM32.3338 14.0255C32.5794 13.9145 32.9437 13.6687 33.1417 13.4864L33.5061 13.1454V11.9958V10.8462L33.0942 10.9017C31.7398 11.0761 30.4805 11.6232 30.0845 12.2099C29.6092 12.8917 29.6964 13.6846 30.2825 14.1048C30.5122 14.2713 30.6072 14.2871 31.2092 14.2634C31.7319 14.2396 31.9853 14.192 32.3338 14.0255Z" fill="black"/>
<path d="M49.2252 16.3406C48.5837 16.2454 47.4748 15.9124 46.8412 15.627C46.3344 15.3971 46.3265 15.3891 46.366 15.1354C46.6194 13.5576 46.683 13.2009 46.7384 13.1374C46.7701 13.1057 47.0075 13.2009 47.2612 13.3515C48.2748 13.9699 49.3282 14.2791 50.4925 14.3029C51.2371 14.3188 51.4194 14.295 51.7361 14.1444C52.1874 13.9382 52.3935 13.6448 52.3935 13.2009C52.3935 12.5745 51.8946 12.2257 50.4531 11.8451C47.9738 11.1949 47.1582 10.6955 46.7068 9.54583C46.5639 9.18114 46.5085 7.92049 46.6116 7.50029C46.865 6.49335 47.7282 5.66087 48.8609 5.31995C49.5582 5.11379 51.649 5.09002 52.4884 5.28032C53.1775 5.43886 54.2391 5.78774 54.2946 5.87495C54.318 5.91457 54.3024 6.17624 54.2548 6.46165C54.2153 6.74709 54.1361 7.22277 54.0963 7.51614C54.049 7.80951 53.9854 8.07906 53.9459 8.11869C53.9065 8.15835 53.6847 8.08699 53.4548 7.96808C52.1796 7.32587 50.4531 7.0325 49.7163 7.34172C49.0748 7.60335 48.9007 8.27726 49.352 8.71335C49.5738 8.93536 50.7459 9.44277 51.0313 9.44277C51.2133 9.44277 52.6946 9.91849 53.0983 10.1008C54.4054 10.7034 54.9677 11.5518 54.9677 12.9472C54.9677 14.6518 54.1201 15.7697 52.4728 16.2216C51.9102 16.3723 49.9381 16.4436 49.2252 16.3406Z" fill="black"/>
<path d="M60.7925 16.3643C60.333 16.3167 59.4303 16.0393 58.9707 15.8014C58.3452 15.4922 57.4262 14.5091 57.0857 13.8034C56.5945 12.7807 56.5156 12.3525 56.5156 10.8302C56.5234 9.30797 56.6105 8.82433 57.07 7.88086C57.7272 6.54093 58.8122 5.66086 60.2857 5.28031C60.9666 5.09793 62.6697 5.10586 63.3666 5.28031C63.9051 5.423 64.9745 5.88287 65.0537 6.00974C65.1092 6.10487 64.7922 8.34861 64.7051 8.44378C64.6735 8.48341 64.5469 8.43582 64.42 8.35654C63.7149 7.84912 62.7646 7.53991 61.949 7.53991C60.2619 7.53991 59.2479 8.76089 59.2479 10.7985C59.2479 12.3525 59.8738 13.407 61.0459 13.8589C62.02 14.2316 63.3588 13.9858 64.436 13.2484L64.7922 13.0027L64.8636 13.185C65.0139 13.5497 65.22 15.2385 65.133 15.3812C65.0139 15.5715 64.119 16.0076 63.4697 16.182C62.8993 16.3406 61.434 16.4436 60.7925 16.3643Z" fill="black"/>
<path d="M70.5702 16.3486C70.0396 16.2455 69.2475 15.9601 68.9148 15.7539C68.4002 15.4289 67.7349 14.755 67.4417 14.2713C66.7369 13.1138 66.4992 12.1148 66.5546 10.5132C66.5944 9.24465 66.7053 8.74516 67.1723 7.80959C67.7505 6.63618 68.7485 5.76404 69.9764 5.35969C70.5148 5.18527 70.7444 5.15356 71.6396 5.15356C72.5345 5.15356 72.7485 5.17734 73.2869 5.35176C74.8791 5.88299 75.9798 7.04846 76.5185 8.8086C76.6849 9.33186 76.7087 9.56972 76.7087 10.7511C76.7087 11.9245 76.6849 12.1782 76.5264 12.7332C76.0352 14.422 74.9424 15.6192 73.4216 16.1424C72.9464 16.3089 72.6376 16.3565 71.877 16.3803C71.3543 16.3961 70.7682 16.3803 70.5702 16.3486ZM72.3998 14.0335C73.0889 13.859 73.7543 12.9314 73.976 11.8452C74.1185 11.1554 74.0393 9.85516 73.8257 9.18122C73.4849 8.14258 72.7009 7.46867 71.7424 7.39731C71.1247 7.34975 70.3645 7.65897 70.0236 8.0871C69.4536 8.8086 69.2634 9.49044 69.2634 10.7907C69.2634 11.6153 69.2951 11.8769 69.4458 12.3368C69.9604 13.859 70.9107 14.4061 72.3998 14.0335Z" fill="black"/>
<path d="M94.5711 16.3721C93.9928 16.2929 93.0105 15.9361 92.5908 15.6506C90.999 14.5724 90.27 12.7885 90.3969 10.3148C90.4602 9.18891 90.5949 8.66564 91.0544 7.70629C91.6245 6.54081 92.5115 5.76381 93.7473 5.35945C94.27 5.18503 94.5235 5.15333 95.3235 5.15333C96.8442 5.1454 97.7551 5.49425 98.6343 6.42187C99.553 7.40503 99.9806 8.61013 99.9884 10.2751L99.9966 11.3058L96.5748 11.3296L93.1452 11.3455V11.6309C93.1452 12.0432 93.3513 12.6933 93.6204 13.1135C94.4285 14.398 96.3452 14.6517 98.2459 13.724C98.6024 13.5575 99.0541 13.3197 99.2598 13.1928C99.466 13.0739 99.6558 13.0025 99.6877 13.0263C99.7666 13.1056 100.028 14.9926 99.9806 15.1194C99.9173 15.2939 98.4044 16.0074 97.7391 16.1898C97.153 16.3484 95.2286 16.4594 94.5711 16.3721ZM97.3034 9.52194C97.3748 9.40299 97.2007 8.69734 96.9867 8.2137C96.7809 7.75387 96.3054 7.27816 95.9255 7.15129C94.7214 6.75489 93.6047 7.54772 93.2323 9.07C93.185 9.27615 93.1612 9.48228 93.185 9.52986C93.2561 9.63292 97.2401 9.625 97.3034 9.52194Z" fill="black"/>
<path d="M10.8993 14.1741C10.8755 14.1037 10.8518 11.4284 10.8518 8.22164C10.8518 1.85625 10.828 2.22111 11.2953 1.90841C11.3983 1.83951 11.7943 1.53458 12.1745 1.2233C12.5626 0.902467 13.0378 0.509824 13.2517 0.33162L13.6239 0.0262451V8.08704V16.1558H12.2378H10.8993V14.1741Z" fill="black"/>
<path d="M38.8906 10.7508V5.31981H40.0393C41.1638 5.31981 41.1876 5.31981 41.2274 5.50216C41.243 5.5973 41.3223 6.01753 41.3937 6.42981C41.457 6.84209 41.5362 7.20679 41.56 7.24645C41.5835 7.28607 41.7182 7.14335 41.8607 6.9293C42.1617 6.48529 42.9855 5.69247 43.3498 5.51008C43.8726 5.2326 44.8627 5.04233 44.9814 5.19294C45.0369 5.2643 45.3379 7.00859 45.4093 7.65872C45.425 7.78556 45.3617 7.82522 45.0685 7.8807C43.8172 8.11063 42.9379 8.57049 42.1699 9.38713L41.6627 9.91835L41.6471 13.0342L41.6233 16.1422L40.261 16.166L38.8906 16.1819V10.7508Z" fill="black"/>
</g>
<defs>
<clipPath id="clip0_1_3251">
<rect width="100" height="20.4082" fill="white"/>
</clipPath>
</defs>
</svg>

<svg xmlns="http://www.w3.org/2000/svg" width="304.762" height="64" fill="none" viewBox="0 0 100 21"><g fill="#000" clip-path="url(#a)"><path d="M78.89 12.86V5.32h1.15c1.124 0 1.148 0 1.18.182.023.095.087.405.142.69l.103.507.539-.491c.981-.88 1.94-1.197 3.223-1.055 1.687.19 2.875 1.356 3.374 3.307.159.65.19.951.19 2.005-.007 2.236-.515 3.671-1.695 4.734-1.108 1.007-2.653 1.348-4.443.99-.388-.078-.776-.174-.847-.205-.135-.056-.143.071-.143 1.926 0 1.095-.032 2.006-.071 2.03-.064.04-.34.087-1.632.285-.261.04-.61.096-.768.127l-.301.056V12.86Zm5.379 1.126c.728-.23 1.227-.785 1.568-1.745.206-.562.198-2.505-.008-3.14-.19-.61-.554-1.07-1.037-1.315-.832-.436-1.783-.175-2.67.721l-.459.476v4.654l.245.135c.317.158 1.117.333 1.585.34a2.74 2.74 0 0 0 .776-.126ZM4.198 16.34c-2.107-.277-3.58-1.704-4.11-3.988C.04 12.146 0 11.45 0 10.806 0 9.411.15 8.73.65 7.754a4.778 4.778 0 0 1 2.938-2.41c.824-.238 2.479-.27 3.303-.064.467.12 1.623.627 1.695.746.016.023 0 .261-.04.523-.206 1.371-.285 1.87-.333 1.91-.023.024-.285-.103-.586-.277-.68-.42-1.172-.57-1.972-.618-1.814-.12-2.883 1.07-2.883 3.195 0 1.229.262 1.958.895 2.545.729.674 1.663.888 2.749.626.57-.135.918-.293 1.457-.634.238-.15.46-.246.483-.206.04.063.23 1.197.333 1.958.04.325.04.333-.34.579-.96.603-2.71.904-4.151.713ZM19.952 16.34c-.634-.102-1.394-.372-1.814-.642-.365-.23-1.077-.904-1.307-1.237-.261-.38-.594-1.141-.753-1.712-.23-.88-.23-3.013 0-3.853.507-1.808 1.688-3.108 3.272-3.584.42-.127.768-.159 1.544-.166.895 0 1.07.023 1.6.214 1.41.507 2.345 1.57 2.772 3.147.182.698.325 2.038.262 2.498l-.048.34-3.414.016-3.413.024.023.397c.048 1.078.777 2.045 1.743 2.347.594.174 1.529.182 2.218.007.633-.166 1.71-.65 2.154-.983.317-.23.444-.15.499.31.024.206.087.666.135 1.014.087.61.079.635-.095.77-.46.34-1.3.713-2.163.95-.641.175-2.503.255-3.215.143Zm2.859-6.913c0-.286-.198-.944-.388-1.308-.364-.722-.911-1.055-1.703-1.055-.943 0-1.87.983-2.004 2.125l-.047.412h4.142v-.174ZM29.23 16.349c-.88-.19-1.672-.84-1.989-1.642-.27-.666-.27-1.998 0-2.672.261-.674.966-1.395 1.695-1.752 1.077-.515 1.893-.73 4.095-1.054l.436-.072-.008-.444c-.016-.951-.547-1.332-1.846-1.332-.871 0-1.473.12-2.519.484-.958.341-.998.341-1.069-.047-.158-.84-.285-1.745-.245-1.808.079-.135 1.362-.54 2.312-.738.792-.166 3.042-.166 3.683 0 1.465.389 2.226 1.182 2.424 2.546.04.309.08 2.267.08 4.463v3.901H33.925l-.087-.404a3.186 3.186 0 0 1-.095-.595c0-.246-.159-.246-.396.008-.31.333-1.03.77-1.584.975-.396.15-.713.198-1.386.222-.476.008-.998 0-1.149-.04Zm3.104-2.324c.245-.11.61-.356.808-.539l.364-.34v-2.3l-.412.056c-1.354.174-2.614.721-3.01 1.308-.475.682-.388 1.475.198 1.895.23.166.325.182.927.158.523-.023.776-.071 1.125-.238ZM49.225 16.34c-.641-.095-1.75-.428-2.384-.713-.507-.23-.514-.238-.475-.492.253-1.577.317-1.934.372-1.998.032-.031.27.064.523.214a6.285 6.285 0 0 0 3.231.952c.745.016.927-.008 1.244-.159.451-.206.658-.5.658-.943 0-.627-.5-.975-1.94-1.356-2.48-.65-3.296-1.15-3.747-2.3-.143-.364-.199-1.625-.095-2.045.253-1.007 1.116-1.84 2.249-2.18.697-.206 2.788-.23 3.627-.04.69.159 1.751.508 1.807.595.023.04.007.301-.04.587-.04.285-.119.76-.159 1.054-.047.294-.11.563-.15.603-.04.04-.261-.032-.491-.15-1.275-.643-3.002-.937-3.739-.627-.641.261-.815.935-.364 1.371.222.222 1.394.73 1.68.73.181 0 1.663.475 2.066.658 1.307.602 1.87 1.45 1.87 2.846 0 1.705-.848 2.823-2.495 3.275-.563.15-2.535.222-3.248.119ZM60.792 16.364c-.459-.047-1.362-.325-1.821-.563-.626-.309-1.545-1.292-1.885-1.998-.492-1.022-.57-1.45-.57-2.973.007-1.522.095-2.006.554-2.95.657-1.34 1.742-2.22 3.216-2.6.68-.182 2.384-.174 3.08 0 .54.143 1.609.603 1.688.73.055.095-.262 2.339-.349 2.434-.031.04-.158-.008-.285-.087-.705-.508-1.655-.817-2.471-.817-1.687 0-2.701 1.22-2.701 3.259 0 1.553.626 2.608 1.798 3.06.974.373 2.313.127 3.39-.61l.356-.246.072.182c.15.365.356 2.053.269 2.196-.12.19-1.014.627-1.663.801-.57.159-2.036.262-2.678.182ZM70.57 16.349c-.53-.104-1.322-.389-1.655-.595-.515-.325-1.18-.999-1.473-1.483-.705-1.157-.943-2.156-.887-3.758.04-1.268.15-1.768.617-2.703a4.78 4.78 0 0 1 2.804-2.45c.539-.175.768-.206 1.664-.206.894 0 1.109.023 1.647.198 1.592.531 2.693 1.696 3.231 3.457.167.523.19.76.19 1.942 0 1.174-.023 1.427-.182 1.982-.49 1.689-1.584 2.886-3.104 3.41-.476.166-.784.213-1.545.237-.523.016-1.109 0-1.307-.031Zm1.83-2.316c.689-.174 1.354-1.102 1.576-2.188.142-.69.063-1.99-.15-2.664-.341-1.038-1.125-1.712-2.084-1.784-.617-.047-1.377.262-1.718.69-.57.722-.76 1.403-.76 2.704 0 .824.031 1.086.182 1.546.514 1.522 1.465 2.07 2.954 1.697ZM94.571 16.372c-.578-.08-1.56-.436-1.98-.721-1.592-1.079-2.321-2.862-2.194-5.336.063-1.126.198-1.65.657-2.609.57-1.165 1.457-1.942 2.693-2.347.523-.174.776-.206 1.576-.206 1.521-.008 2.432.341 3.311 1.269.919.983 1.347 2.188 1.354 3.853l.009 1.03-3.422.025-3.43.015v.286c0 .412.206 1.062.475 1.482.808 1.285 2.725 1.539 4.626.611.356-.167.808-.404 1.014-.531.206-.12.396-.19.428-.167.079.08.34 1.967.293 2.093-.064.175-1.577.888-2.242 1.07-.586.16-2.51.27-3.168.183Zm2.732-6.85c.072-.119-.102-.825-.316-1.308-.206-.46-.682-.936-1.061-1.063-1.205-.396-2.321.397-2.694 1.919-.047.206-.07.412-.047.46.071.103 4.055.095 4.118-.008ZM10.9 14.174c-.024-.07-.048-2.746-.048-5.952 0-6.366-.024-6 .443-6.314.103-.068.5-.373.88-.685l1.077-.891.372-.306V16.156H10.899v-1.982ZM38.89 10.75V5.32h1.15c1.124 0 1.148 0 1.187.182.016.095.095.516.167.928.063.412.142.777.166.816.023.04.158-.103.3-.317.302-.444 1.126-1.237 1.49-1.419.523-.277 1.513-.468 1.631-.317.056.071.357 1.816.428 2.466.016.127-.047.166-.34.222-1.252.23-2.131.69-2.9 1.506l-.506.531-.016 3.116-.024 3.108-1.362.024-1.37.016V10.75Z"/></g><defs><clipPath id="a"><path fill="#fff" d="M0 0h100v20.408H0z"/></clipPath></defs></svg>
